X: 10111
T: STEWART'S LASSIE
R: Strathspey
B: K\"ohler's Violin Repository, v.1, 1885 p.11 #1
F: http://www.archive.org/details/klersviolinrepos01edin
Z: 2011 John Chambers <jc:trillian.mit.edu>
M: C
L: 1/8
K: G
uD |\
(.G>.B)(.d>.B) (.c>.e)(.g>.e) | d<B(B>G) (A3B) | (.G>.B)(.d>.B) (.c>.e)(.g>.e) | d<B(A>B) G2 :|
ud |\
(c/B/).A/.G/ (G>D) E>FGe | d<BHg>B {B}A3ud | (c/B/).A/.G/ (G>D) E>FGe | d<B(A>B) G3ud |
(c/B/).A/.G/ (G>D) E>FGe | d<BHg>B {B}A3uD | (.G>.B)(.d>.B) (.c>.e)(.g>.e) | d<b(a>g) g3 & d<B(A>B) G3 |]

%%sep 2 1 500

